!!!COM: Palestrina, Giovanni Perluigi da
!!!OPR: Missa O admirabile commercium
!!!OMD: Credo
!!!OTL: Crucifixus
**kern	**kern	**kern	**kern
*Ibass	*Itenor	*Itenor	*Icalto
!Bassus	!Tenor 2	!Tenor 1	!Altus
*clefF4	*clefGv2	*clefGv2	*clefG2
*k[]	*k[]	*k[]	*k[]
*G:mix	*G:mix	*G:mix	*G:mix
*M4/2	*M4/2	*M4/2	*M4/2
=69	=69	=69	=69
0C	0e	0c	0g
=70	=70	=70	=70
1G	1d	1B	1g
1F	1f	1c	1a
=71	=71	=71	=71
2C	2e	2c	1g
1c	1g	1e	.
.	.	.	2.cc
2B	2a	2f	.
.	.	.	4cc
=72	=72	=72	=72
2c	2g	2e	2cc
2d	2f	1f	1a
1B-	2.d	.	.
.	.	[2d	2g
.	4e	.	.
=73	=73	=73	=73
1A	2f	2d]	0a
.	2e	2c	.
2r	2r	2r	.
2A	2a	2e	.
=74	=74	=74	=74
2.c	2.g	2.e	0r
4B	4g	4d	.
2A	2f	2c	.
2G	2e	2B	.
=75	=75	=75	=75
2.A	2.f	2.c	0r
4G	4e	4B	.
2F	4d	2A	.
.	4c	.	.
2E	[2g	2G	.
=76	=76	=76	=76
1D	2g]	1d	1a
.	2f#	.	.
1C	2g	1e	2.cc
.	2e	.	.
.	.	.	4b
=77	=77	=77	=77
0r	2f	2r	2a
.	2e	2e	2g
.	2d	2f	2.a
.	2c	2e	.
.	.	.	4g
=78	=78	=78	=78
1r	2d	2a	2f
.	1c	2a	2e
1G	.	1g	2d
.	2B	.	[2g
=79	=79	=79	=79
[0C	2c	1e	2g]
.	1g	.	2c
.	.	2r	2.e
.	2c	2g	.
.	.	.	4f
=80	=80	=80	=80
1C]	2.e	2c	1g
.	.	2.e	.
.	4d	.	.
2.E	4c	.	1g
.	4B	4d	.
.	[2e	[2c	.
4F	.	.	.
=81	=81	=81	=81
2G	2e]	2c]	1.g
2G	2d	2B	.
2C	2c	2e	.
2C	2c	2e	2g
*-	*-	*-	*-
!!!CDT: 1525/^1526/-1594/2/2
!!!OCY: Italia
!!!AGN: Mass (Parody)
!!!AST: renaissance, vocal
!!!ASW: Motet 1569 (Palestrina)
!!!PWK: Masses, Book 8
!!!RNB: Cadence finals: C,D
!!!YOR: Le Opere Complete, v. 24, p. 52
!!!YOO: Rome, Italy: Fratelli Scalera
!!!END: 1992//
!!!EED: John Miller
!!!YEC: Copyright 2000, John Miller
!!!YEN: United States of America
!!!YEM: Rights to all derivative electronic formats reserved.
!!!YEM: Refer to licensing agreement for further details.
!!!YEM: This file must be accompanied by the licensing agreement.
!!!YEM: A copy of the licensing agreement may be found at http://www.music-cog.ohio-state.edu/HumdrumDatabases/Palestrina/license.txt
!!!EMD: converted to Humdrum by Bret Aarden
